; HEADER_BLOCK_START
; generated by OrcaSlicer 2.1.1 on 2024-10-18 at 16:42:24
; total layer number: 17
; filament_density: 1.24
; filament_diameter: 1.75
; max_z_height: 4.08
; HEADER_BLOCK_END

; THUMBNAIL_BLOCK_START

;
; THUMBNAIL_BLOCK_END

; THUMBNAIL_BLOCK_START

;
; THUMBNAIL_BLOCK_END

; external perimeters extrusion width = 0.62mm
; perimeters extrusion width = 0.65mm
; infill extrusion width = 0.65mm
; solid infill extrusion width = 0.62mm
; top infill extrusion width = 0.62mm
; first layer extrusion width = 0.50mm

; external perimeters extrusion width = 0.62mm
; perimeters extrusion width = 0.65mm
; infill extrusion width = 0.65mm
; solid infill extrusion width = 0.62mm
; top infill extrusion width = 0.62mm
; first layer extrusion width = 0.50mm

; EXECUTABLE_BLOCK_START
EXCLUDE_OBJECT_DEFINE NAME=gear-pinza.stl_id_0_copy_0 CENTER=110.697,141.46 POLYGON=[[91.2029,141.242],[91.2504,140.808],[91.3449,140.382],[91.4853,139.969],[91.6699,139.573],[91.8964,139.2],[92.1622,138.854],[92.4642,138.539],[92.7987,138.259],[93.1617,138.016],[93.5489,137.815],[93.9558,137.657],[94.3775,137.545],[94.8089,137.479],[95.2449,137.46],[126.149,137.46],[126.585,137.479],[127.016,137.545],[127.438,137.657],[127.845,137.815],[128.232,138.016],[128.595,138.259],[128.93,138.539],[129.232,138.854],[129.497,139.2],[129.724,139.573],[129.909,139.969],[130.049,140.382],[130.143,140.808],[130.191,141.242],[130.191,141.678],[130.143,142.112],[130.049,142.538],[129.909,142.951],[129.724,143.347],[129.497,143.72],[129.232,144.066],[128.93,144.381],[128.595,144.661],[128.232,144.903],[127.845,145.105],[127.438,145.262],[127.016,145.375],[126.585,145.441],[126.149,145.46],[95.2449,145.46],[94.8089,145.441],[94.3775,145.375],[93.9558,145.262],[93.5489,145.105],[93.1617,144.903],[92.7987,144.661],[92.4642,144.381],[92.1622,144.066],[91.8964,143.72],[91.6699,143.347],[91.4853,142.951],[91.3449,142.538],[91.2504,142.112],[91.2029,141.678],[91.2029,141.242]]
EXCLUDE_OBJECT_DEFINE NAME=gear-pinza.stl_id_1_copy_0 CENTER=110,105 POLYGON=[[90.506,104.782],[90.5535,104.348],[90.648,103.922],[90.7884,103.509],[90.9729,103.113],[91.1995,102.74],[91.4653,102.394],[91.7673,102.079],[92.1018,101.799],[92.4648,101.556],[92.852,101.355],[93.2589,101.197],[93.6806,101.085],[94.112,101.019],[94.548,101],[125.452,101],[125.888,101.019],[126.319,101.085],[126.741,101.197],[127.148,101.355],[127.535,101.556],[127.898,101.799],[128.233,102.079],[128.535,102.394],[128.801,102.74],[129.027,103.113],[129.212,103.509],[129.352,103.922],[129.446,104.348],[129.494,104.782],[129.494,105.218],[129.446,105.652],[129.352,106.078],[129.212,106.491],[129.027,106.887],[128.801,107.26],[128.535,107.606],[128.233,107.921],[127.898,108.201],[127.535,108.444],[127.148,108.645],[126.741,108.803],[126.319,108.915],[125.888,108.981],[125.452,109],[94.548,109],[94.112,108.981],[93.6806,108.915],[93.2589,108.803],[92.852,108.645],[92.4648,108.444],[92.1018,108.201],[91.7673,107.921],[91.4653,107.606],[91.1995,107.26],[90.9729,106.887],[90.7884,106.491],[90.648,106.078],[90.5535,105.652],[90.506,105.218],[90.506,104.782]]
M73 P0 R3
M106 S0
M106 P2 S0
;TYPE:Custom
M140 S0
M104 S0
START_PRINT EXTRUDER_TEMP=190 BED_TEMP=60
G90
G21
M83 ; use relative distances for extrusion
; filament start gcode
SET_PRESSURE_ADVANCE ADVANCE=0.036; Override pressure advance value
M106 S0
M106 P2 S0
;LAYER_CHANGE
;Z:0.24
;HEIGHT:0.24
;BEFORE_LAYER_CHANGE
;0.24
G92 E0

G1 E-.7 F2400
;_SET_FAN_SPEED_CHANGING_LAYER
SET_VELOCITY_LIMIT ACCEL=500 ACCEL_TO_DECEL=250
SET_VELOCITY_LIMIT SQUARE_CORNER_VELOCITY=9
EXCLUDE_OBJECT_START NAME=gear-pinza.stl_id_0_copy_0
G1 X123.588 Y139.89 F30000
G1 Z.24
G1 E.7 F2400
;TYPE:Inner wall
;WIDTH:0.499999
G1 F3000
G2 X123.598 Y143.046 I2.678 J1.57 E.14329
G1 X123.154 Y142.865 E.02075
G1 X122.466 Y142.71 E.0305
G1 X121.872 Y142.663 E.02582
G1 X99.522 Y142.663 E.96742
G2 X98.46 Y142.803 I.639 J8.973 E.04641
G1 X97.805 Y143.029 E.02998
G2 X97.796 Y139.874 I-2.678 J-1.57 E.14329
G1 X98.24 Y140.055 E.02075
G1 X98.927 Y140.21 E.0305
G1 X99.522 Y140.257 E.02582
M73 P1 R3
G1 X121.872 Y140.257 E.96742
G2 X122.934 Y140.117 I-.639 J-8.973 E.04641
G1 X123.532 Y139.91 E.02738
G1 E-.49 F2400
;WIPE_START
G1 F3000
G1 X123.447 Y140.152 E-.02696
G1 X123.269 Y140.623 E-.05281
G1 X123.171 Y141.116 E-.05281
G1 X123.156 Y141.619 E-.05281
G1 X123.187 Y141.851 E-.02462
;WIPE_END
G1 X125.965 Y139.234 Z.44 F30000
G1 X126.368 Y138.854 Z.44
G1 Z.24
G1 E.7 F2400
;WIDTH:0.551027
G1 F3000
G1 X126.724 Y138.893 E.01727
;WIDTH:0.552182
G1 X127.278 Y139.075 E.02821
G1 X127.761 Y139.356 E.02701
;WIDTH:0.548964
G1 X128.164 Y139.727 E.02629
;WIDTH:0.552257
G1 X128.507 Y140.226 E.02923
G1 X128.721 Y140.752 E.02746
;WIDTH:0.549902
G1 X128.814 Y141.3 E.02676
;WIDTH:0.552267
G1 X128.781 Y141.886 E.02837
G1 X128.625 Y142.449 E.02823
;WIDTH:0.550388
G1 X128.367 Y142.933 E.02637
;WIDTH:0.552225
G1 X127.987 Y143.371 E.02803
G1 X127.521 Y143.722 E.02822
;WIDTH:0.550827
G1 X127.018 Y143.951 E.02662
;WIDTH:0.552121
G1 X126.455 Y144.066 E.02779
G1 X125.871 Y144.06 E.02821
;WIDTH:0.547425
G1 X125.292 Y143.92 E.02852
;WIDTH:0.553666
G1 X124.793 Y143.671 E.02702
;WIDTH:0.574792
G1 X124.305 Y143.293 E.03114
G1 X124.149 Y143.064 E.01403
;WIDTH:0.537396
G1 X123.993 Y142.834 E.01302
;WIDTH:0.499999
G1 X123.797 Y142.452 E.01859
G1 X123.648 Y141.937 E.02319
G1 X123.604 Y141.46 E.02076
G1 X123.666 Y140.876 E.0254
G1 X123.841 Y140.366 E.02336
;WIDTH:0.530429
G1 X124.033 Y140.045 E.0173
;WIDTH:0.560858
G1 X124.225 Y139.723 E.01839
G1 X124.613 Y139.368 E.02585
;WIDTH:0.550203
G1 X125.001 Y139.13 E.02193
;WIDTH:0.545367
G1 X125.401 Y138.964 E.02062
;WIDTH:0.553133
G1 X125.896 Y138.857 E.02455
G1 X126.242 Y138.841 E.01675
;WIDTH:0.551027
G1 X126.308 Y138.848 E.0032
G1 X126.311 Y139.334 F30000
;TYPE:Outer wall
;WIDTH:0.499999
G1 F3000
G1 X126.531 Y139.336 E.00952
G3 X128.089 Y140.452 I-.365 J2.156 E.08586
G1 X128.282 Y140.94 E.02275
G1 X128.341 Y141.303 E.01591
G1 X128.312 Y141.808 E.02189
G1 X128.177 Y142.295 E.02189
G1 X127.987 Y142.651 E.01747
G1 X127.666 Y143.022 E.0212
G1 X127.262 Y143.325 E.02189
G1 X126.878 Y143.499 E.01824
G1 X126.415 Y143.593 E.02043
G1 X125.91 Y143.587 E.02189
G1 X125.481 Y143.487 E.01905
G1 X125.053 Y143.273 E.02074
G1 X124.634 Y142.936 E.02326
G3 X124.091 Y141.864 I1.672 J-1.522 E.05267
G1 X124.053 Y141.301 E.02442
G1 X124.161 Y140.786 E.02276
G1 X124.383 Y140.307 E.02287
G1 X124.628 Y139.99 E.01732
G1 X125.053 Y139.646 E.02365
G1 X125.516 Y139.42 E.02233
G1 X125.936 Y139.33 E.01857
G1 X126.251 Y139.333 E.01365
G1 E-.49 F2400
;WIPE_START
G1 F3000
G1 X126.531 Y139.336 E-.0294
G1 X126.912 Y139.433 E-.04131
G1 X127.236 Y139.578 E-.03728
G1 X127.532 Y139.775 E-.03728
G1 X127.804 Y140.034 E-.03945
G1 X127.94 Y140.233 E-.02526
;WIPE_END
G1 X124.182 Y139.567 Z.44 F30000
G1 X123.492 Y139.445 Z.44
G1 Z.24
M73 P2 R3
G1 E.7 F2400
;TYPE:Inner wall
;WIDTH:0.537698
G1 F3000
G1 X123.714 Y139.343 E.01147
;WIDTH:0.575397
G1 X123.971 Y139.225 E.01427
G1 X124.546 Y138.812 E.03583
;WIDTH:0.553667
G1 X125.084 Y138.55 E.02902
;WIDTH:0.547425
G1 X125.609 Y138.406 E.02604
;WIDTH:0.551221
G1 X126.12 Y138.338 E.02484
G1 X126.629 Y138.38 E.02462
;WIDTH:0.542636
G1 X127.129 Y138.495 E.02433
;WIDTH:0.54454
G1 X127.617 Y138.691 E.02505
;WIDTH:0.549486
G1 X128.089 Y138.98 E.02656
;WIDTH:0.550611
G1 X128.545 Y139.407 E.03014
G1 X128.839 Y139.82 E.0244
;WIDTH:0.543227
G1 X129.076 Y140.29 E.02498
;WIDTH:0.544629
G1 X129.233 Y140.779 E.02443
;WIDTH:0.550139
G1 X129.313 Y141.317 E.02618
G1 X129.3 Y141.632 E.01519
;WIDTH:0.543457
G1 X129.229 Y142.154 E.02499
;WIDTH:0.549447
G1 X129.076 Y142.658 E.02534
;WIDTH:0.549678
G1 X128.773 Y143.224 E.03083
G1 X128.439 Y143.618 E.02485
;WIDTH:0.544246
G1 X128.04 Y143.962 E.02503
;WIDTH:0.543604
G1 X127.605 Y144.233 E.02437
;WIDTH:0.54932
G1 X127.139 Y144.434 E.02437
G1 X126.642 Y144.54 E.0244
;WIDTH:0.544848
G1 X126.116 Y144.567 E.02507
;WIDTH:0.54255
G1 X125.593 Y144.51 E.02495
;WIDTH:0.547425
G1 X125.084 Y144.37 E.02525
;WIDTH:0.553666
G1 X124.511 Y144.087 E.031
;WIDTH:0.574792
G1 X123.978 Y143.7 E.03327
G1 X123.778 Y143.612 E.01104
;WIDTH:0.546361
G1 X123.578 Y143.524 E.01044
;WIDTH:0.517929
G1 X123.055 Y143.303 E.02556
;WIDTH:0.499999
G2 X121.872 Y143.111 I-1.362 J4.673 E.05201
G1 X99.522 Y143.111 E.96742
G2 X98.607 Y143.226 I.913 J10.977 E.03995
G1 X97.936 Y143.459 E.03072
;WIDTH:0.537698
G1 X97.68 Y143.576 E.01324
;WIDTH:0.575397
G1 X97.423 Y143.694 E.01427
G1 X96.847 Y144.108 E.03583
;WIDTH:0.553666
G1 X96.309 Y144.37 E.02902
;WIDTH:0.547428
G1 X95.793 Y144.511 E.02561
;WIDTH:0.542556
G1 X95.282 Y144.567 E.02436
;WIDTH:0.544849
G1 X94.752 Y144.54 E.0253
;WIDTH:0.54933
G1 X94.203 Y144.417 E.027
G1 X93.661 Y144.172 E.02861
;WIDTH:0.548499
G1 X93.23 Y143.868 E.02528
;WIDTH:0.543008
G1 X92.862 Y143.511 E.02433
;WIDTH:0.544137
G1 X92.54 Y143.078 E.02566
;WIDTH:0.550384
G1 X92.293 Y142.597 E.02601
;WIDTH:0.552262
G1 X92.116 Y141.941 E.03286
G1 X92.08 Y141.29 E.03153
;WIDTH:0.550142
G1 X92.159 Y140.792 E.02425
;WIDTH:0.543865
G1 X92.318 Y140.29 E.02503
;WIDTH:0.543344
G1 X92.554 Y139.82 E.02497
;WIDTH:0.548082
G1 X92.864 Y139.394 E.02524
;WIDTH:0.549445
G1 X93.326 Y138.96 E.03043
G1 X93.776 Y138.691 E.02524
;WIDTH:0.544541
G1 X94.265 Y138.495 E.02505
;WIDTH:0.542732
G1 X94.778 Y138.379 E.02496
;WIDTH:0.548868
G1 X95.291 Y138.344 E.02468
;WIDTH:0.552048
G1 X95.935 Y138.43 E.03138
;WIDTH:0.552345
G1 X96.549 Y138.647 E.03148
;WIDTH:0.554099
G1 X96.861 Y138.818 E.01725
;WIDTH:0.575396
G1 X97.423 Y139.225 E.03509
G1 X97.622 Y139.312 E.01097
;WIDTH:0.546913
G1 X97.821 Y139.399 E.01037
;WIDTH:0.518429
G1 X98.339 Y139.617 E.02534
;WIDTH:0.499999
G2 X99.522 Y139.808 I1.362 J-4.673 E.05201
G1 X121.872 Y139.808 E.96742
G2 X122.787 Y139.693 I-.913 J-10.976 E.03995
G1 X123.437 Y139.468 E.02975
G1 X123.221 Y139.069 F30000
;TYPE:Outer wall
G1 F3000
G1 X123.306 Y139.039 E.00391
G1 X123.67 Y138.842 E.01788
G1 X124.287 Y138.41 E.03262
G1 X124.999 Y138.067 E.03421
G3 X126.148 Y137.861 I1.419 J4.617 E.05064
M73 P3 R3
G1 X126.934 Y137.938 E.03422
G1 X127.679 Y138.181 E.03393
G1 X128.354 Y138.58 E.03394
G1 X128.927 Y139.116 E.03394
G1 X129.37 Y139.763 E.03394
G1 X129.627 Y140.402 E.02982
G3 X129.786 Y141.343 I-4.943 J1.319 E.04137
G1 X129.747 Y142.046 E.03051
G1 X129.536 Y142.801 E.03394
G1 X129.166 Y143.493 E.03394
G1 X128.655 Y144.088 E.03394
G1 X128.028 Y144.558 E.03394
G1 X127.313 Y144.881 E.03394
G1 X126.546 Y145.041 E.03394
G1 X125.762 Y145.032 E.03394
G1 X125.076 Y144.871 E.03051
G3 X123.639 Y144.059 I2.613 J-6.304 E.0716
G1 X122.956 Y143.74 E.03264
G2 X121.872 Y143.56 I-1.254 J4.195 E.0477
G1 X99.509 Y143.56 E.96799
G1 X98.753 Y143.65 E.03293
G1 X98.088 Y143.881 E.0305
G1 X97.722 Y144.078 E.01797
G1 X97.107 Y144.51 E.03253
G1 X96.395 Y144.853 E.03421
G1 X95.632 Y145.032 E.03394
G1 X94.848 Y145.041 E.03394
G1 X94.08 Y144.881 E.03394
G1 X93.366 Y144.558 E.03394
G1 X92.739 Y144.088 E.03394
G1 X92.228 Y143.493 E.03394
G1 X91.858 Y142.801 E.03394
G1 X91.647 Y142.046 E.03395
G1 X91.604 Y141.264 E.03392
G1 X91.732 Y140.49 E.03394
G1 X92.024 Y139.762 E.03394
G1 X92.459 Y139.125 E.0334
G1 X93.04 Y138.58 E.03448
G1 X93.714 Y138.181 E.03392
G1 X94.46 Y137.938 E.03394
G1 X95.24 Y137.862 E.03394
G1 X95.939 Y137.947 E.0305
G3 X96.843 Y138.264 I-1.892 J6.848 E.04149
G3 X97.755 Y138.86 I-5.67 J9.655 E.04717
G1 X98.438 Y139.18 E.03264
G2 X99.522 Y139.36 I1.254 J-4.195 E.0477
G1 X121.885 Y139.36 E.96799
G1 X122.64 Y139.27 E.03293
G1 X123.164 Y139.088 E.024
G1 E-.49 F2400
;WIPE_START
G1 F3000
G1 X123.306 Y139.039 E-.01578
G1 X123.67 Y138.842 E-.04338
G1 X124.287 Y138.41 E-.07913
G1 X124.902 Y138.113 E-.07171
;WIPE_END
G1 X121.11 Y138.545 Z.44 F30000
G1 X92.607 Y141.786 Z.44
M73 P4 R3
G1 Z.24
G1 E.7 F2400
;TYPE:Inner wall
;WIDTH:0.552262
G1 F3000
G1 X92.579 Y141.303 E.02336
;WIDTH:0.550142
G1 X92.668 Y140.765 E.02624
;WIDTH:0.552279
G1 X92.887 Y140.225 E.02816
G1 X93.209 Y139.752 E.02766
;WIDTH:0.550578
G1 X93.617 Y139.366 E.02707
;WIDTH:0.552182
G1 X94.115 Y139.075 E.02787
G1 X94.67 Y138.893 E.02822
;WIDTH:0.551028
G1 X95.22 Y138.837 E.02663
;WIDTH:0.552048
G1 X95.79 Y138.909 E.02778
;WIDTH:0.552345
G1 X96.365 Y139.113 E.02948
;WIDTH:0.554348
G1 X96.854 Y139.425 E.02814
;WIDTH:0.557269
G1 X97.184 Y139.746 E.02247
G1 X97.348 Y140.018 E.01552
;WIDTH:0.528634
G1 X97.512 Y140.291 E.01464
;WIDTH:0.499999
G1 X97.701 Y140.769 E.02224
G1 X97.789 Y141.301 E.02336
G1 X97.78 Y141.73 E.01857
G1 X97.657 Y142.279 E.02438
G1 X97.405 Y142.826 E.02607
;WIDTH:0.53858
G1 X97.257 Y143.051 E.01265
;WIDTH:0.577161
G1 X97.109 Y143.276 E.01365
G1 X96.601 Y143.671 E.03265
;WIDTH:0.553666
G1 X96.102 Y143.92 E.02702
;WIDTH:0.547428
G1 X95.693 Y144.031 E.02028
;WIDTH:0.54263
G1 X95.14 Y144.078 E.02632
G1 X94.71 Y144.032 E.02052
;WIDTH:0.544721
G1 X94.292 Y143.918 E.02059
;WIDTH:0.550828
G1 X93.873 Y143.722 E.02231
;WIDTH:0.552227
G1 X93.406 Y143.371 E.02822
G1 X93.036 Y142.945 E.02727
;WIDTH:0.549445
G1 X92.773 Y142.46 E.0265
;WIDTH:0.552262
G1 X92.613 Y141.886 E.0288
G1 X92.611 Y141.846 E.00195
G1 X93.079 Y141.758 F30000
;TYPE:Outer wall
;WIDTH:0.499999
G1 F3000
G1 X93.053 Y141.303 E.01973
G1 X93.117 Y140.914 E.01707
G1 X93.305 Y140.451 E.02162
G1 X93.603 Y140.017 E.02278
G1 X93.891 Y139.752 E.01697
G1 X94.306 Y139.509 E.02081
G1 X94.787 Y139.352 E.02189
G1 X95.205 Y139.311 E.01821
G1 X95.674 Y139.369 E.02044
G1 X96.175 Y139.548 E.02301
G3 X96.808 Y140.039 I-.912 J1.828 E.03491
G1 X97.117 Y140.504 E.0242
G1 X97.286 Y140.95 E.02063
G1 X97.341 Y141.46 E.0222
G1 X97.285 Y141.97 E.0222
G3 X96.766 Y142.929 I-2.309 J-.629 E.04766
G1 X96.341 Y143.273 E.02365
G1 X95.877 Y143.499 E.02233
G1 X95.578 Y143.575 E.01338
G3 X93.728 Y143.022 I-.364 J-2.153 E.08658
G1 X93.387 Y142.621 E.02278
G1 X93.217 Y142.295 E.01589
G1 X93.084 Y141.818 E.02146
G1 E-.49 F2400
;WIPE_START
G1 F3000
G1 X93.053 Y141.303 E-.05414
G1 X93.117 Y140.914 E-.04141
G1 X93.305 Y140.451 E-.05244
G1 X93.603 Y140.017 E-.05525
G1 X93.65 Y139.974 E-.00676
;WIPE_END
G1 Z.44 F30000
G1 X122.57 Y140.32
G1 Z.44
G1 Z.24
G1 E.7 F2400
;TYPE:Bottom surface
;WIDTH:0.500604
G1 F6300
G1 X122.911 Y140.66 E.0209
G2 X122.833 Y141.217 I3.565 J.785 E.0244
G1 X122.178 Y140.562 E.04014
G3 X121.574 Y140.593 I-.453 J-2.946 E.02628
G1 X122.852 Y141.871 E.07834
M73 P5 R3
G2 X122.985 Y142.484 I1.934 J-.099 E.02732
G1 X122.788 Y142.442 E.00876
G1 X120.939 Y140.593 E.11334
G1 X120.304 Y140.593 E.02753
G1 X122.046 Y142.336 E.10682
G2 X121.402 Y142.326 I-.408 J5.87 E.02795
G1 X119.668 Y140.593 E.10625
G1 X119.033 Y140.593 E.02753
G1 X120.767 Y142.326 E.10625
G1 X120.132 Y142.326 E.02753
G1 X118.398 Y140.593 E.10625
G1 X117.763 Y140.593 E.02753
G1 X119.496 Y142.326 E.10625
G1 X118.861 Y142.326 E.02753
G1 X117.128 Y140.593 E.10625
G1 X116.493 Y140.593 E.02753
G1 X118.226 Y142.326 E.10625
G1 X117.591 Y142.326 E.02753
G1 X115.858 Y140.593 E.10625
G1 X115.223 Y140.593 E.02753
G1 X116.956 Y142.326 E.10625
G1 X116.321 Y142.326 E.02753
G1 X114.587 Y140.593 E.10625
G1 X113.952 Y140.593 E.02753
G1 X115.686 Y142.326 E.10625
G1 X115.051 Y142.326 E.02753
G1 X113.317 Y140.593 E.10625
G1 X112.682 Y140.593 E.02753
G1 X114.415 Y142.326 E.10625
G1 X113.78 Y142.326 E.02753
G1 X112.047 Y140.593 E.10625
M73 P6 R3
G1 X111.412 Y140.593 E.02753
G1 X113.145 Y142.326 E.10625
G1 X112.51 Y142.326 E.02753
G1 X110.777 Y140.593 E.10625
G1 X110.142 Y140.593 E.02753
G1 X111.875 Y142.326 E.10625
G1 X111.24 Y142.326 E.02753
G1 X109.507 Y140.593 E.10625
G1 X108.871 Y140.593 E.02753
G1 X110.605 Y142.326 E.10625
G1 X109.97 Y142.326 E.02753
G1 X108.236 Y140.593 E.10625
G1 X107.601 Y140.593 E.02753
G1 X109.334 Y142.326 E.10625
G1 X108.699 Y142.326 E.02753
G1 X106.966 Y140.593 E.10625
G1 X106.331 Y140.593 E.02753
G1 X108.064 Y142.326 E.10625
G1 X107.429 Y142.326 E.02753
G1 X105.696 Y140.593 E.10625
G1 X105.061 Y140.593 E.02753
G1 X106.794 Y142.326 E.10625
G1 X106.159 Y142.326 E.02753
G1 X104.426 Y140.593 E.10625
G1 X103.79 Y140.593 E.02753
G1 X105.524 Y142.326 E.10625
G1 X104.889 Y142.326 E.02753
G1 X103.155 Y140.593 E.10625
G1 X102.52 Y140.593 E.02753
